X: 8
T:Glory in the Meeting House
R:Reel
M:4/4
L:1/8
N:Transcribed by Bruce Thomson from Open House (GLCD 1122)
K:Em
E2 efedBA|Be2fe3|E2 efedBA|GBAGEDB,D|E2efedBA|Be2fe2f|
^gfed B_BAA|GBAG E4:|EF^GA BdBA|^GBA^G EDB,D|EF^G GdBA|
^G E2EE2|EF^GA BdBA|^GBA^G EDB,D|[1EF^GABdBA|^G E2EE2:|
[2E^GBd edBA|^G E2EE2|]

